X: 651
T: Yongbuneng zhu niangjia
%%abc-version 2.0
%%abcx-abcm2ps-target-version 5.9.1 (29 Sep 2008)
%%abc-creator hum2abc beta
%%abcx-conversion-date 2013/10/02 07:52:30
%%abc-edited-by Helmut Schaffrath
%%humdrum-veritas 1531964301
%%humdrum-veritas-data 2431194770
%%continueall 1
%%barnumbers 0
L: 1/8
M: 2/4
K: G
B B/ A/ G G [I:setbarnb 1]| 
A A/ E/ D D | 
E G A A | 
A d A A | 
G/ E/ D D z | 
B/ B/ B/ A/ G G | 
A/ A/ A/ E/ D D | 
E G A A | 
d> E G G | 
G/ E/ E D z | 
d ed2 | 
g ed2 | 
d G A B | 
d B A G/ E/ | 
D4 |]  



